src/svg/misc/tag-locked.svg

<?xml version="1.0" encoding="UTF-8"?>
<svg version="1.1" viewBox="0 0 24 24" xmlns="http://www.w3.org/2000/svg">
 <style type="text/css">.st0{fill:#FFFFFF;}
	.st1{fill:#8DC742;}</style>
 <path d="m12 2c-2.8405 0-5.1523 2.3118-5.1523 5.1523v2.7266h-0.9082c-0.50206 0-0.9082 0.40614-0.9082 0.9082v10.305c0 0.50206 0.40614 0.9082 0.9082 0.9082h12.121c0.50206 0 0.9082-0.40614 0.9082-0.9082v-10.305c0-0.50206-0.40614-0.9082-0.9082-0.9082h-0.9082v-2.7266c0-2.8405-2.3118-5.1523-5.1523-5.1523zm0 1.8184c1.838 0 3.334 1.496 3.334 3.334v2.7266h-6.668v-2.7266c0-1.838 1.496-3.334 3.334-3.334zm-3.3223 9.0859c3.6694 0 6.6445 2.9733 6.6445 6.6426h-1.1074c0-3.0576-2.4793-5.5352-5.5371-5.5352v-1.1074zm0 2.584c2.2423 0 4.0605 1.8164 4.0605 4.0586h-1.1074c0-1.6308-1.3223-2.9512-2.9531-2.9512v-1.1074zm0 2.584c0.8154 0 1.4766 0.66119 1.4766 1.4766h-1.4766v-1.4766z"/>
 <style type="text/css">.st0{fill:#FFFFFF;}
	.st1{fill:#8DC742;}</style>
</svg>

<svg viewBox="0 0 24 24" xmlns="http://www.w3.org/2000/svg"><path d="M12 2a5.159 5.159 0 0 0-5.152 5.152V9.88h-.909a.908.908 0 0 0-.908.908v10.305c0 .502.406.908.909.908h12.12a.908.908 0 0 0 .909-.908V10.787a.908.908 0 0 0-.908-.908h-.909V7.152A5.159 5.159 0 0 0 12 2zm0 1.818a3.338 3.338 0 0 1 3.334 3.334V9.88H8.666V7.152A3.338 3.338 0 0 1 12 3.818zm-3.322 9.086a6.643 6.643 0 0 1 6.644 6.643h-1.107a5.536 5.536 0 0 0-5.537-5.535v-1.108zm0 2.584a4.06 4.06 0 0 1 4.06 4.059h-1.107a2.952 2.952 0 0 0-2.953-2.951v-1.108zm0 2.584c.815 0 1.476.661 1.476 1.477H8.678v-1.477z"/></svg>
